dist/svg/mobile-group.svg

<!-- Generated by Trend Micro Style Portal -->
<svg version="1.1" xmlns="http://www.w3.org/2000/svg" width="16" height="16" viewBox="0 0 16 16">
  <title>mobile-group</title>
  <path fill="rgb(34,34,34)" d="M9 3h-6c-0.552 0-1 0.448-1 1v0 11c0 0.552 0.448 1 1 1v0h6c0.552 0 1-0.448 1-1v0-11c0-0.552-0.448-1-1-1v0zM7 15h-2v-1h2zM9 6v7h-6v-8h6zM14 1v11c0 0.552-0.448 1-1 1v0h-2v-3h2v-8h-7v-1c0-0.552 0.448-1 1-1v0h6c0.552 0 1 0.448 1 1v0z"></path>
</svg>

<svg width="16" height="16" viewBox="0 0 16 16" fill="rgb(34, 34, 34)" xmlns="http://www.w3.org/2000/svg"><title>mobile-group</title><path d="M9 3H3C2.448 3 2 3.448 2 4V15C2 15.552 2.448 16 3 16H9C9.552 16 10 15.552 10 15V4C10 3.448 9.552 3 9 3ZM7 15H5V14H7V15ZM9 6V13H3V5H9V6ZM14 1V12C14 12.552 13.552 13 13 13H11V10H13V2H6V1C6 0.448 6.448 0 7 0H13C13.552 0 14 0.448 14 1Z" fill="rgb(34, 34, 34)" fill-opacity="1.00"/></svg>
